svg/fluentui-system-icons/ic_fluent_clipboard_20_filled.svg

<svg width="20" height="20" viewBox="0 0 20 20" fill="none" xmlns="http://www.w3.org/2000/svg">
<path d="M7.08535 3C7.29127 2.4174 7.84689 2 8.5 2H11.5C12.1531 2 12.7087 2.4174 12.9146 3H14.5C15.3284 3 16 3.67157 16 4.5V16.5C16 17.3284 15.3284 18 14.5 18H5.5C4.67157 18 4 17.3284 4 16.5V4.5C4 3.67157 4.67157 3 5.5 3H7.08535ZM8.5 3C8.22386 3 8 3.22386 8 3.5C8 3.77614 8.22386 4 8.5 4H11.5C11.7761 4 12 3.77614 12 3.5C12 3.22386 11.7761 3 11.5 3H8.5Z" fill="#212121"/>
</svg>

<svg xmlns="http://www.w3.org/2000/svg" width="20" height="20"><path d="M7.085 3A1.5 1.5 0 0 1 8.5 2h3a1.5 1.5 0 0 1 1.415 1H14.5A1.5 1.5 0 0 1 16 4.5v12a1.5 1.5 0 0 1-1.5 1.5h-9A1.5 1.5 0 0 1 4 16.5v-12A1.5 1.5 0 0 1 5.5 3h1.585ZM8.5 3a.5.5 0 0 0 0 1h3a.5.5 0 0 0 0-1h-3Z"/></svg>
